dist/img/svg/logo.svg

<svg width="131" height="49" viewBox="0 0 131 49" fill="none" xmlns="http://www.w3.org/2000/svg">
<path d="M38.9913 48.8623C38.9212 48.8623 38.9212 48.8623 38.9913 48.8623V44.1759C38.9913 44.107 39.0614 44.0381 39.1316 44.0381H39.2718C39.342 44.0381 39.4121 44.107 39.4121 44.1759V48.5177H42.1471C42.2172 48.5177 42.2874 48.5866 42.2874 48.6555V48.7934C42.2874 48.8623 42.2172 48.9312 42.1471 48.9312H38.9913V48.8623Z" fill="black"/>
<path d="M38.9913 48.8623C38.9212 48.8623 38.9212 48.8623 38.9913 48.8623V44.1759C38.9913 44.107 39.0614 44.0381 39.1316 44.0381H39.2718C39.342 44.0381 39.4121 44.107 39.4121 44.1759V48.5177H42.1471C42.2172 48.5177 42.2874 48.5866 42.2874 48.6555V48.7934C42.2874 48.8623 42.2172 48.9312 42.1471 48.9312H38.9913V48.8623Z" fill="black"/>
<path d="M46.1445 44.245C46.1445 44.1761 46.2147 44.1072 46.2848 44.1072H46.425C46.4952 44.1072 46.5653 44.1761 46.5653 44.245V48.7935C46.5653 48.8625 46.4952 48.9314 46.425 48.9314H46.2848C46.2147 48.9314 46.1445 48.8625 46.1445 48.7935V44.245Z" fill="black"/>
<path d="M46.1445 44.245C46.1445 44.1761 46.2147 44.1072 46.2848 44.1072H46.425C46.4952 44.1072 46.5653 44.1761 46.5653 44.245V48.7935C46.5653 48.8625 46.4952 48.9314 46.425 48.9314H46.2848C46.2147 48.9314 46.1445 48.8625 46.1445 48.7935V44.245Z" fill="black"/>
<path d="M51.4042 48.7934C51.4042 48.8623 51.334 48.9312 51.2639 48.9312H51.1237C51.0535 48.9312 50.9834 48.8623 50.9834 48.7934V44.2448C50.9834 44.1759 51.0535 44.107 51.1237 44.107H51.1938C51.2639 44.107 51.334 44.1759 51.4042 44.1759L54.7002 48.242V44.1759C54.7002 44.107 54.7703 44.0381 54.8405 44.0381H54.9807C55.0509 44.0381 55.121 44.107 55.121 44.1759V48.7244C55.121 48.7934 55.0509 48.8623 54.9807 48.8623H54.8405C54.7703 48.8623 54.7002 48.8623 54.6301 48.7934L51.334 44.7273V48.7934H51.4042Z" fill="black"/>
<path d="M51.4042 48.7934C51.4042 48.8623 51.334 48.9312 51.2639 48.9312H51.1237C51.0535 48.9312 50.9834 48.8623 50.9834 48.7934V44.2448C50.9834 44.1759 51.0535 44.107 51.1237 44.107H51.1938C51.2639 44.107 51.334 44.1759 51.4042 44.1759L54.7002 48.242V44.1759C54.7002 44.107 54.7703 44.0381 54.8405 44.0381H54.9807C55.0509 44.0381 55.121 44.107 55.121 44.1759V48.7244C55.121 48.7934 55.0509 48.8623 54.9807 48.8623H54.8405C54.7703 48.8623 54.7002 48.8623 54.6301 48.7934L51.334 44.7273V48.7934H51.4042Z" fill="black"/>
<path d="M61.9233 46.7259C61.8532 46.7259 61.783 46.657 61.783 46.5881V46.5192C61.783 46.4502 61.8532 46.3813 61.9233 46.3813H63.8869V48.7245C63.8869 48.7934 63.8168 48.8623 63.7466 48.8623H63.6765C63.6064 48.8623 63.5363 48.7934 63.5363 48.7245V48.2421C63.5363 48.1732 63.5363 48.1043 63.5363 48.1043C63.5363 48.1043 63.5363 48.0353 63.4661 48.1043C63.0454 48.6556 62.4142 48.9313 61.6428 48.9313C60.2402 48.9313 59.1182 47.8286 59.1182 46.4502C59.1182 45.0719 60.2402 43.9692 61.6428 43.9692C62.4142 43.9692 63.1155 44.3138 63.6064 44.8652C63.6765 44.9341 63.6064 45.003 63.6064 45.003L63.4661 45.0719C63.396 45.1408 63.3259 45.0719 63.3259 45.0719C62.6947 44.3827 61.6428 44.0382 60.5909 44.5895C60.1701 44.7962 59.8194 45.2097 59.6091 45.6922C59.048 47.2083 60.1701 48.5867 61.6428 48.5867C62.4142 48.5867 63.0454 48.1732 63.4661 47.6218C63.4661 47.6218 63.4661 47.5529 63.4661 47.484V46.7948C63.4661 46.7259 63.396 46.7259 63.396 46.7259H61.9233Z" fill="black"/>
<path d="M61.9233 46.7259C61.8532 46.7259 61.783 46.657 61.783 46.5881V46.5192C61.783 46.4502 61.8532 46.3813 61.9233 46.3813H63.8869V48.7245C63.8869 48.7934 63.8168 48.8623 63.7466 48.8623H63.6765C63.6064 48.8623 63.5363 48.7934 63.5363 48.7245V48.2421C63.5363 48.1732 63.5363 48.1043 63.5363 48.1043C63.5363 48.1043 63.5363 48.0353 63.4661 48.1043C63.0454 48.6556 62.4142 48.9313 61.6428 48.9313C60.2402 48.9313 59.1182 47.8286 59.1182 46.4502C59.1182 45.0719 60.2402 43.9692 61.6428 43.9692C62.4142 43.9692 63.1155 44.3138 63.6064 44.8652C63.6765 44.9341 63.6064 45.003 63.6064 45.003L63.4661 45.0719C63.396 45.1408 63.3259 45.0719 63.3259 45.0719C62.6947 44.3827 61.6428 44.0382 60.5909 44.5895C60.1701 44.7962 59.8194 45.2097 59.6091 45.6922C59.048 47.2083 60.1701 48.5867 61.6428 48.5867C62.4142 48.5867 63.0454 48.1732 63.4661 47.6218C63.4661 47.6218 63.4661 47.5529 63.4661 47.484V46.7948C63.4661 46.7259 63.396 46.7259 63.396 46.7259H61.9233Z" fill="black"/>
<path d="M68.2349 48.8625V44.1072H71.4608C71.5309 44.1072 71.601 44.1761 71.601 44.245V44.3828C71.601 44.4518 71.5309 44.5207 71.4608 44.5207H68.5855V46.4504H71.04C71.1101 46.4504 71.1803 46.5193 71.1803 46.5882V46.726C71.1803 46.7949 71.1101 46.8639 71.04 46.8639H68.5855V48.6557H71.4608C71.5309 48.6557 71.601 48.7246 71.601 48.7935V48.9314C71.601 49.0003 71.5309 49.0692 71.4608 49.0692H68.2349V48.8625Z" fill="black"/>
<path d="M68.2349 48.8625V44.1072H71.4608C71.5309 44.1072 71.601 44.1761 71.601 44.245V44.3828C71.601 44.4518 71.5309 44.5207 71.4608 44.5207H68.5855V46.4504H71.04C71.1101 46.4504 71.1803 46.5193 71.1803 46.5882V46.726C71.1803 46.7949 71.1101 46.8639 71.04 46.8639H68.5855V48.6557H71.4608C71.5309 48.6557 71.601 48.7246 71.601 48.7935V48.9314C71.601 49.0003 71.5309 49.0692 71.4608 49.0692H68.2349V48.8625Z" fill="black"/>
<path d="M75.7388 44.1072H77.9128C78.9647 44.1072 79.5958 44.7963 79.5958 45.6234C79.5958 46.3125 79.1751 46.8639 78.4738 47.0706L79.666 48.7246C79.666 48.7935 79.666 48.7935 79.5958 48.7935H79.3854C79.3153 48.7935 79.2452 48.7246 79.2452 48.7246L78.1231 47.1395C78.1231 47.1395 78.053 47.0706 77.9829 47.0706H77.9128H76.1595V48.6557C76.1595 48.7246 76.0894 48.7935 76.0193 48.7935H75.879C75.8089 48.7935 75.7388 48.7246 75.7388 48.6557V44.1072ZM77.9128 44.4518H76.1595V46.8639H77.9128C78.7543 46.8639 79.2452 46.3125 79.2452 45.6923C79.1751 45.0031 78.7543 44.4518 77.9128 44.4518Z" fill="black"/>
<path d="M75.7388 44.1072H77.9128C78.9647 44.1072 79.5958 44.7963 79.5958 45.6234C79.5958 46.3125 79.1751 46.8639 78.4738 47.0706L79.666 48.7246C79.666 48.7935 79.666 48.7935 79.5958 48.7935H79.3854C79.3153 48.7935 79.2452 48.7246 79.2452 48.7246L78.1231 47.1395C78.1231 47.1395 78.053 47.0706 77.9829 47.0706H77.9128H76.1595V48.6557C76.1595 48.7246 76.0894 48.7935 76.0193 48.7935H75.879C75.8089 48.7935 75.7388 48.7246 75.7388 48.6557V44.1072ZM77.9128 44.4518H76.1595V46.8639H77.9128C78.7543 46.8639 79.2452 46.3125 79.2452 45.6923C79.1751 45.0031 78.7543 44.4518 77.9128 44.4518Z" fill="black"/>
<path d="M83.8035 44.245C83.8035 44.1761 83.8736 44.1072 83.9437 44.1072H84.084C84.1541 44.1072 84.2242 44.1761 84.2242 44.245V48.7935C84.2242 48.8625 84.1541 48.9314 84.084 48.9314H83.9437C83.8736 48.9314 83.8035 48.8625 83.8035 48.7935V44.245Z" fill="black"/>
<path d="M83.8035 44.245C83.8035 44.1761 83.8736 44.1072 83.9437 44.1072H84.084C84.1541 44.1072 84.2242 44.1761 84.2242 44.245V48.7935C84.2242 48.8625 84.1541 48.9314 84.084 48.9314H83.9437C83.8736 48.9314 83.8035 48.8625 83.8035 48.7935V44.245Z" fill="black"/>
<path d="M88.7124 48.8625V44.1072H91.9383C92.0085 44.1072 92.0786 44.1761 92.0786 44.245V44.3828C92.0786 44.4518 92.0085 44.5207 91.9383 44.5207H89.063V46.4504H91.5176C91.5877 46.4504 91.6578 46.5193 91.6578 46.5882V46.726C91.6578 46.7949 91.5877 46.8639 91.5176 46.8639H89.063V48.6557H91.9383C92.0085 48.6557 92.0786 48.7246 92.0786 48.7935V48.9314C92.0786 49.0003 92.0085 49.0692 91.9383 49.0692H88.7124V48.8625Z" fill="black"/>
<path d="M88.7124 48.8625V44.1072H91.9383C92.0085 44.1072 92.0786 44.1761 92.0786 44.245V44.3828C92.0786 44.4518 92.0085 44.5207 91.9383 44.5207H89.063V46.4504H91.5176C91.5877 46.4504 91.6578 46.5193 91.6578 46.5882V46.726C91.6578 46.7949 91.5877 46.8639 91.5176 46.8639H89.063V48.6557H91.9383C92.0085 48.6557 92.0786 48.7246 92.0786 48.7935V48.9314C92.0786 49.0003 92.0085 49.0692 91.9383 49.0692H88.7124V48.8625Z" fill="black"/>
<path d="M0.490899 32.8734C0.210385 32.8734 0 32.6667 0 32.391V11.1645C0 10.8889 0.210385 10.6821 0.490899 10.6821H1.19218C1.4727 10.6821 1.68308 10.8889 1.68308 11.1645V30.8059C1.68308 31.0127 1.82334 31.2194 2.10385 31.2194H14.2361C14.5166 31.2194 14.727 31.4262 14.727 31.7018V32.3221C14.727 32.5977 14.5166 32.8045 14.2361 32.8045H0.490899V32.8734Z" fill="black"/>
<path d="M0.490899 32.8734C0.210385 32.8734 0 32.6667 0 32.391V11.1645C0 10.8889 0.210385 10.6821 0.490899 10.6821H1.19218C1.4727 10.6821 1.68308 10.8889 1.68308 11.1645V30.8059C1.68308 31.0127 1.82334 31.2194 2.10385 31.2194H14.2361C14.5166 31.2194 14.727 31.4262 14.727 31.7018V32.3221C14.727 32.5977 14.5166 32.8045 14.2361 32.8045H0.490899V32.8734Z" fill="black"/>
<path d="M49.09 11.1645C49.09 10.8889 49.3004 10.6821 49.5809 10.6821H50.2822C50.5627 10.6821 50.7731 10.8889 50.7731 11.1645V24.4655C50.7731 29.4276 47.477 33.2869 41.3057 33.2869C35.1344 33.2869 31.8384 29.4276 31.8384 24.4655V11.1645C31.8384 10.8889 32.0488 10.6821 32.3293 10.6821H33.0306C33.3111 10.6821 33.5215 10.8889 33.5215 11.1645V24.3966C33.5215 28.6006 36.2565 31.6329 41.3057 31.6329C46.355 31.6329 49.09 28.6006 49.09 24.3966V11.1645Z" fill="black"/>
<path d="M49.09 11.1645C49.09 10.8889 49.3004 10.6821 49.5809 10.6821H50.2822C50.5627 10.6821 50.7731 10.8889 50.7731 11.1645V24.4655C50.7731 29.4276 47.477 33.2869 41.3057 33.2869C35.1344 33.2869 31.8384 29.4276 31.8384 24.4655V11.1645C31.8384 10.8889 32.0488 10.6821 32.3293 10.6821H33.0306C33.3111 10.6821 33.5215 10.8889 33.5215 11.1645V24.3966C33.5215 28.6006 36.2565 31.6329 41.3057 31.6329C46.355 31.6329 49.09 28.6006 49.09 24.3966V11.1645Z" fill="black"/>
<path d="M73.2141 32.3221C73.2141 32.5977 73.0037 32.8045 72.7232 32.8045H72.0219C71.7414 32.8045 71.531 32.5977 71.531 32.3221V11.1645C71.531 10.8889 71.7414 10.6821 72.0219 10.6821H72.5128C72.8634 10.6821 73.144 10.82 73.3543 11.0956L88.432 29.7032C88.5021 29.8411 88.7125 29.7721 88.7125 29.6343V11.1645C88.7125 10.8889 88.9229 10.6821 89.2034 10.6821H89.9047C90.1852 10.6821 90.3956 10.8889 90.3956 11.1645V32.391C90.3956 32.6667 90.1852 32.8734 89.9047 32.8734H89.4138C89.0631 32.8734 88.7826 32.7356 88.5722 32.4599L73.4946 13.8523C73.4245 13.7145 73.2141 13.7834 73.2141 13.9212V32.3221Z" fill="black"/>
<path d="M73.2141 32.3221C73.2141 32.5977 73.0037 32.8045 72.7232 32.8045H72.0219C71.7414 32.8045 71.531 32.5977 71.531 32.3221V11.1645C71.531 10.8889 71.7414 10.6821 72.0219 10.6821H72.5128C72.8634 10.6821 73.144 10.82 73.3543 11.0956L88.432 29.7032C88.5021 29.8411 88.7125 29.7721 88.7125 29.6343V11.1645C88.7125 10.8889 88.9229 10.6821 89.2034 10.6821H89.9047C90.1852 10.6821 90.3956 10.8889 90.3956 11.1645V32.391C90.3956 32.6667 90.1852 32.8734 89.9047 32.8734H89.4138C89.0631 32.8734 88.7826 32.7356 88.5722 32.4599L73.4946 13.8523C73.4245 13.7145 73.2141 13.7834 73.2141 13.9212V32.3221Z" fill="black"/>
<path d="M118.727 11.0957C118.868 10.82 119.148 10.6133 119.499 10.6133H120.34C120.691 10.6133 120.972 10.82 121.112 11.0957L130.93 32.3911C131.07 32.5978 130.93 32.8735 130.649 32.8735H129.808C129.457 32.8735 129.177 32.6667 129.107 32.3911L127.143 28.1871C127.003 27.9804 126.792 27.8425 126.582 27.8425H113.187C112.977 27.8425 112.696 27.9804 112.626 28.1871L110.733 32.3911C110.593 32.6667 110.312 32.8735 110.032 32.8735H109.19C108.91 32.8735 108.769 32.5978 108.91 32.3911L118.727 11.0957ZM120.06 12.8186C119.99 12.6808 119.779 12.6808 119.709 12.8186L113.678 25.8439C113.608 25.9818 113.678 26.1885 113.889 26.1885H125.81C126.021 26.1885 126.161 25.9818 126.021 25.8439L120.06 12.8186Z" fill="black"/>
<path d="M118.727 11.0957C118.868 10.82 119.148 10.6133 119.499 10.6133H120.34C120.691 10.6133 120.972 10.82 121.112 11.0957L130.93 32.3911C131.07 32.5978 130.93 32.8735 130.649 32.8735H129.808C129.457 32.8735 129.177 32.6667 129.107 32.3911L127.143 28.1871C127.003 27.9804 126.792 27.8425 126.582 27.8425H113.187C112.977 27.8425 112.696 27.9804 112.626 28.1871L110.733 32.3911C110.593 32.6667 110.312 32.8735 110.032 32.8735H109.19C108.91 32.8735 108.769 32.5978 108.91 32.3911L118.727 11.0957ZM120.06 12.8186C119.99 12.6808 119.779 12.6808 119.709 12.8186L113.678 25.8439C113.608 25.9818 113.678 26.1885 113.889 26.1885H125.81C126.021 26.1885 126.161 25.9818 126.021 25.8439L120.06 12.8186Z" fill="black"/>
<path d="M41.0952 8.40798L40.3238 7.99448C40.1134 7.92556 40.0433 7.6499 40.1836 7.51206L44.1108 0.206858C44.1809 0.000106856 44.3913 -0.0688102 44.6017 0.0690239L45.3731 0.482526C45.5835 0.551443 45.6536 0.827111 45.5133 0.964945L41.5861 8.27015C41.516 8.4769 41.3056 8.54582 41.0952 8.40798Z" fill="black"/>
</svg>

<svg width="131" height="49" viewBox="0 0 131 49" fill="none" xmlns="http://www.w3.org/2000/svg"><path d="M38.991 48.862c-.07 0-.07 0 0 0v-4.686c0-.069.07-.138.14-.138h.14c.071 0 .141.069.141.138v4.342h2.735c.07 0 .14.069.14.138v.137c0 .07-.07.138-.14.138h-3.156v-.069z" fill="#000"/><path d="M38.991 48.862c-.07 0-.07 0 0 0v-4.686c0-.069.07-.138.14-.138h.14c.071 0 .141.069.141.138v4.342h2.735c.07 0 .14.069.14.138v.137c0 .07-.07.138-.14.138h-3.156v-.069zm7.154-4.617c0-.069.07-.138.14-.138h.14c.07 0 .14.07.14.138v4.549c0 .069-.07.137-.14.137h-.14c-.07 0-.14-.069-.14-.137v-4.549z" fill="#000"/><path d="M46.145 44.245c0-.069.07-.138.14-.138h.14c.07 0 .14.07.14.138v4.549c0 .069-.07.137-.14.137h-.14c-.07 0-.14-.069-.14-.137v-4.549zm5.259 4.548c0 .07-.07.138-.14.138h-.14c-.07 0-.14-.069-.14-.138v-4.548c0-.07.07-.138.14-.138h.07c.07 0 .14.069.21.069l3.296 4.066v-4.066c0-.069.07-.138.14-.138h.14c.07 0 .141.069.141.138v4.548c0 .07-.07.138-.14.138h-.14c-.07 0-.14 0-.21-.069l-3.297-4.066v4.066h.07z" fill="#000"/><path d="M51.404 48.793c0 .07-.07.138-.14.138h-.14c-.07 0-.14-.069-.14-.138v-4.548c0-.07.07-.138.14-.138h.07c.07 0 .14.069.21.069l3.296 4.066v-4.066c0-.069.07-.138.14-.138h.14c.07 0 .141.069.141.138v4.548c0 .07-.07.138-.14.138h-.14c-.07 0-.14 0-.21-.069l-3.297-4.066v4.066h.07zm10.519-2.067c-.07 0-.14-.069-.14-.138v-.069c0-.069.07-.138.14-.138h1.964v2.343c0 .07-.07.138-.14.138h-.07c-.07 0-.14-.069-.14-.138v-.62s0-.069-.07 0c-.422.552-1.053.827-1.824.827-1.403 0-2.525-1.102-2.525-2.48 0-1.38 1.122-2.482 2.525-2.482.771 0 1.472.345 1.963.896.07.07 0 .138 0 .138l-.14.069c-.07.069-.14 0-.14 0-.631-.69-1.683-1.034-2.735-.483-.42.207-.772.62-.982 1.103-.561 1.516.561 2.895 2.034 2.895.771 0 1.402-.414 1.823-.965v-.828c0-.068-.07-.068-.07-.068h-1.473z" fill="#000"/><path d="M61.923 46.726c-.07 0-.14-.069-.14-.138v-.069c0-.069.07-.138.14-.138h1.964v2.343c0 .07-.07.138-.14.138h-.07c-.07 0-.14-.069-.14-.138v-.62s0-.069-.07 0c-.422.552-1.053.827-1.824.827-1.403 0-2.525-1.102-2.525-2.48 0-1.38 1.122-2.482 2.525-2.482.771 0 1.472.345 1.963.896.07.07 0 .138 0 .138l-.14.069c-.07.069-.14 0-.14 0-.631-.69-1.683-1.034-2.735-.483-.42.207-.772.62-.982 1.103-.561 1.516.561 2.895 2.034 2.895.771 0 1.402-.414 1.823-.965v-.828c0-.068-.07-.068-.07-.068h-1.473zm6.312 2.136v-4.755h3.226c.07 0 .14.07.14.138v.138c0 .069-.07.138-.14.138h-2.876v1.93h2.455c.07 0 .14.068.14.137v.138c0 .069-.07.138-.14.138h-2.455v1.792h2.876c.07 0 .14.069.14.138v.137c0 .07-.07.138-.14.138h-3.226v-.207z" fill="#000"/><path d="M68.235 48.862v-4.755h3.226c.07 0 .14.07.14.138v.138c0 .069-.07.138-.14.138h-2.876v1.93h2.455c.07 0 .14.068.14.137v.138c0 .069-.07.138-.14.138h-2.455v1.792h2.876c.07 0 .14.069.14.138v.137c0 .07-.07.138-.14.138h-3.226v-.207zm7.504-4.755h2.174c1.052 0 1.683.69 1.683 1.516 0 .69-.42 1.24-1.122 1.448l1.192 1.654c0 .069 0 .069-.07.069h-.21c-.07 0-.14-.07-.14-.07l-1.123-1.584s-.07-.07-.14-.07h-1.824v1.586c0 .069-.07.138-.14.138h-.14c-.07 0-.14-.07-.14-.138v-4.549zm2.174.345h-1.754v2.412h1.754c.841 0 1.332-.551 1.332-1.172-.07-.689-.49-1.24-1.332-1.24z" fill="#000"/><path d="M75.739 44.107h2.174c1.052 0 1.683.69 1.683 1.516 0 .69-.42 1.24-1.122 1.448l1.192 1.654c0 .069 0 .069-.07.069h-.21c-.07 0-.14-.07-.14-.07l-1.123-1.584s-.07-.07-.14-.07h-1.824v1.586c0 .069-.07.138-.14.138h-.14c-.07 0-.14-.07-.14-.138v-4.549zm2.174.345h-1.754v2.412h1.754c.841 0 1.332-.551 1.332-1.172-.07-.689-.49-1.24-1.332-1.24zm5.89-.207c0-.069.07-.138.14-.138h.141c.07 0 .14.07.14.138v4.549c0 .069-.07.137-.14.137h-.14c-.07 0-.14-.069-.14-.137v-4.549z" fill="#000"/><path d="M83.803 44.245c0-.069.07-.138.14-.138h.141c.07 0 .14.07.14.138v4.549c0 .069-.07.137-.14.137h-.14c-.07 0-.14-.069-.14-.137v-4.549zm4.909 4.617v-4.755h3.226c.07 0 .14.07.14.138v.138c0 .069-.07.138-.14.138h-2.875v1.93h2.455c.07 0 .14.068.14.137v.138c0 .069-.07.138-.14.138h-2.455v1.792h2.875c.07 0 .14.069.14.138v.137c0 .07-.07.138-.14.138h-3.226v-.207z" fill="#000"/><path d="M88.712 48.862v-4.755h3.226c.07 0 .14.07.14.138v.138c0 .069-.07.138-.14.138h-2.875v1.93h2.455c.07 0 .14.068.14.137v.138c0 .069-.07.138-.14.138h-2.455v1.792h2.875c.07 0 .14.069.14.138v.137c0 .07-.07.138-.14.138h-3.226v-.207zM.49 32.873a.475.475 0 0 1-.49-.482V11.165c0-.276.21-.483.49-.483h.702c.28 0 .491.207.491.482v19.642a.4.4 0 0 0 .42.413h12.133c.28 0 .491.207.491.483v.62c0 .276-.21.482-.49.482H.49v.07z" fill="#000"/><path d="M.49 32.873a.475.475 0 0 1-.49-.482V11.165c0-.276.21-.483.49-.483h.702c.28 0 .491.207.491.482v19.642a.4.4 0 0 0 .42.413h12.133c.28 0 .491.207.491.483v.62c0 .276-.21.482-.49.482H.49v.07zm48.6-21.708c0-.276.21-.483.49-.483h.702c.28 0 .491.207.491.482v13.301c0 4.963-3.296 8.822-9.467 8.822-6.172 0-9.468-3.86-9.468-8.822v-13.3c0-.276.21-.483.491-.483h.702c.28 0 .49.207.49.482v13.233c0 4.204 2.736 7.236 7.785 7.236 5.049 0 7.784-3.032 7.784-7.236V11.165z" fill="#000"/><path d="M49.09 11.165c0-.276.21-.483.49-.483h.702c.28 0 .491.207.491.482v13.301c0 4.963-3.296 8.822-9.467 8.822-6.172 0-9.468-3.86-9.468-8.822v-13.3c0-.276.21-.483.491-.483h.702c.28 0 .49.207.49.482v13.233c0 4.204 2.736 7.236 7.785 7.236 5.049 0 7.784-3.032 7.784-7.236V11.165zm24.124 21.157c0 .276-.21.482-.49.482h-.702a.475.475 0 0 1-.491-.482V11.164c0-.275.21-.482.49-.482h.492c.35 0 .631.138.841.414l15.078 18.607c.07.138.28.07.28-.069v-18.47c0-.275.21-.482.491-.482h.702c.28 0 .49.207.49.482v21.227c0 .276-.21.482-.49.482h-.491c-.35 0-.631-.137-.842-.413L73.495 13.852c-.07-.138-.28-.069-.28.07v18.4z" fill="#000"/><path d="M73.214 32.322c0 .276-.21.482-.49.482h-.702a.475.475 0 0 1-.491-.482V11.164c0-.275.21-.482.49-.482h.492c.35 0 .631.138.841.414l15.078 18.607c.07.138.28.07.28-.069v-18.47c0-.275.21-.482.491-.482h.702c.28 0 .49.207.49.482v21.227c0 .276-.21.482-.49.482h-.491c-.35 0-.631-.137-.842-.413L73.495 13.852c-.07-.138-.28-.069-.28.07v18.4zm45.513-21.226a.865.865 0 0 1 .772-.483h.841c.351 0 .632.207.772.483l9.818 21.295c.14.207 0 .483-.281.483h-.841c-.351 0-.631-.207-.701-.483l-1.964-4.204c-.14-.207-.351-.345-.561-.345h-13.395c-.21 0-.491.138-.561.345l-1.893 4.204c-.14.276-.421.483-.701.483h-.842c-.28 0-.421-.276-.28-.483l9.817-21.295zm1.333 1.723c-.07-.138-.281-.138-.351 0l-6.031 13.025c-.07.138 0 .345.211.345h11.921c.211 0 .351-.207.211-.345l-5.961-13.025z" fill="#000"/><path d="M118.727 11.096a.865.865 0 0 1 .772-.483h.841c.351 0 .632.207.772.483l9.818 21.295c.14.207 0 .483-.281.483h-.841c-.351 0-.631-.207-.701-.483l-1.964-4.204c-.14-.207-.351-.345-.561-.345h-13.395c-.21 0-.491.138-.561.345l-1.893 4.204c-.14.276-.421.483-.701.483h-.842c-.28 0-.421-.276-.28-.483l9.817-21.295zm1.333 1.723c-.07-.138-.281-.138-.351 0l-6.031 13.025c-.07.138 0 .345.211.345h11.921c.211 0 .351-.207.211-.345l-5.961-13.025zM41.095 8.408l-.771-.414c-.21-.068-.28-.344-.14-.482L44.11.207c.07-.207.28-.276.49-.138l.772.414c.21.068.28.344.14.482L41.586 8.27c-.07.207-.28.276-.49.138z" fill="#000"/></svg>
